X:1
T:Title
%%score 1 { 2 | 3 }
L:1/8
Q:1/4=107
M:4/4
K:F
V:1 treble nm="Grand Piano, Unnamed-000"
V:2 bass nm="Choir Pad, St. Flavian, CM"
V:3 bass 
V:1
 [CF]2 [CF]2 [CE]2 [CF]2 | [FA]2 [FG]2 [EG]2 F2 | F2 [FB]2 [FA]2 F2 | [EG]2 [EA]6 | %4
w: By~Day’s~Psalter,~1563 * * *||||
 [FA]2 [FA]2 [FB]2 [Ec]2 | [EA]2 [DF]2 [EG]2 [FA]2 | [FA]2 [EG]2 F2 [DF]2 | [CE]2 [CF]6- | %8
w: ||||
 [CF]2 z2 z4 |] %9
w: |
V:2
 A,2 G,2 G,2 A,2 | D2 D2 C2 A,2 | A,2 B,2[K:treble] C2 D2 | D2 ^C6 | C2 C2[K:bass] B,2 G,2 | %5
 A,2 A,2 C2 C2 | C2 C2 A,2 G,2 | G,2 A,6- | A,2 z2 z4 |] %9
V:3
 F,2 C,2 C,2 F,2 | D,2 B,,2 C,2 F,2 | F,2 D,2 F,2 B,2 | B,2 A,6 | F,2 F,2 D,2 C,2 | %5
 C,2 D,2 C,2 F,2 | F,2 C,2 D,2 B,,2 | C,2 F,6- | F,2 z2 z4 |] %9

